X:1
T: Im Kreise (Walzer) FCBb chords
T:Hanny Christen. Bd.I Zürich, Schaffhausen, St. Gallen I. S.290 (wz00322) orig. F,C,Bb-Dur
T: Repertoire der <S\"achser Musig> 1880-1900, Weinigen ZH. S.275-296
M:3/4
L:1/4
K:F %%MIDI gchordon
"F"A3 | c2d | ("C7"c3 | c)zz | "F"A2c | "Bb"f2"C7"g | ("F"f3 | f)zf | "C"e2g | "Am"c2e | 
("F#0""_?"c3 | c)zA | "Gm"A2G | "C7"c2E | ("F"F3 | F)zG || [K:C] "C"GzG | "G7"Gc>d | "C"e2c | "A7"G2z | 
"Dm"AzA | "A7"Ad>e | "Dm"f2d | "G7"B2c | BzB | "F"AzA | ("C"G3 | G)CE | ("G7"G3 | G)AB | 
("C"c3 | "C7"c)zz || [K:F] "F"c3 | "C7"d2e | "F"f3 | A2f | "A7"e3 | "A7/C#"f2e | ("D0"d3 | d)zz | "F/C"c3 | 
"F#0"_edc | "Gm"B3 | dcB | "Dm"A2d | "A7"f2e | ("Dm"d3 | d)zF |: [K:Bb] ("F7"f3 | f)ec | ("Bb"B3 | B)AG | 
"F7"F2^F | G2E | ("Bb"D3 | D)zF | ("D0"f3 | f)ed | ("Eb"c3 | c) BG | ("Bb/F"F3 | F)"F7"dc | ("Bb"B3 | B)zz |] 

